X:17
T:Peuple de l'Evangile
C:M. Wackenheim
M:C|
L:1/4
K:C
"Do"EE/D/ EF|GG zC/C/|"Rem"FF/G/ FF/E/|"Sol"D4|"Mim"GG/A/ GF|"Lam"EE zF/G/|\
"Fa"AA/A/ "Rem"BB/A/|"Sol"G2 zG|
"Lam"c3/c/ BA|"Mim"BB zE|"Fa"A3/A/ "Sol"GA|"Do"EE zG|"Lam"c3/c/ BA|"Mim"BB zE|\
"Fa"A2 "Mim"GG|"Lam"A4||
"Do"z/E/ E/E/ E/E/ E/E/|G3 G|"Fa"CC/C/ "Sol"DC/D/|"Do"EE- Ez/E/|
"Lam"E/E/ E/E/ E/E/ E/E/|A3/A/ A/A/ A/B/|"Rem"c2 BA|"Sol4"G2 "Sol"G2||
